X:571
T:(untitled)
C:John Malchair's Third Collection of Tunes
F:https://www.vwml.org/record/Malchair/3619/p57
F:www.vwml.org/topics/historic-dance-and-tune-books/Malchair
Z:Eric Conrad Jan 2020
M:3/4
L:1/8
K:A
P:A
|: {g}a2 | (Ace)cec | !sfz![de]4B2 | GEGEc2 | A2A2 {g}a2 |
(Ace)cec | [de]4B2 | GFGFc2 | A2z2 :|
P:B
|: c2 | {e}d4A2 | {e}d4A2 | GBGBc2 | B2B2c2 |
{e}d4A2 | {e}d4A2 | G2BGEG | A2z2 :|

%
